packages/foundations/assets/icons/functional/images/human/wc_women.svg

<svg xmlns="http://www.w3.org/2000/svg" width="32" height="32" fill="none"><path fill="#1A1C1F" fill-rule="evenodd" d="M15.232 2.108a2.96 2.96 0 0 0-1.337.794C12.233 4.575 13.03 7.38 15.32 7.92c1.856.437 3.667-.993 3.667-2.897a3.035 3.035 0 0 0-2.241-2.917c-.36-.096-1.161-.095-1.514.002m1.232 2.057c.44.213.652.872.423 1.314-.477.923-1.872.595-1.868-.439.002-.764.745-1.214 1.445-.875M13.426 9.55c-.537.13-1.114.607-1.335 1.105-.188.422-1.822 9.148-1.78 9.506a2.08 2.08 0 0 0 1.14 1.608c.321.158.401.174.982.195l.634.022v3.622c0 3.99-.014 3.829.337 4.137.477.418 1.273.249 1.534-.325.095-.209.1-.432.101-4.385.001-2.971-.016-4.218-.06-4.347a1.1 1.1 0 0 0-.2-.333c-.279-.303-.375-.326-1.475-.355l-1.017-.027.777-4.253.776-4.254 2.157.014 2.158.013.776 4.24.777 4.24-1.014.027c-1.08.028-1.195.054-1.451.329-.291.311-.283.182-.283 4.684 0 3.626.011 4.189.082 4.36.107.256.218.375.471.504.419.214.92.093 1.23-.295l.164-.205.014-3.695.015-3.696.626-.022c.564-.02.662-.039.98-.188a1.9 1.9 0 0 0 .955-.941c.289-.62.309-.449-.616-5.395-.916-4.902-.915-4.9-1.368-5.354a2.5 2.5 0 0 0-.58-.4l-.346-.166-2.48-.009c-1.364-.005-2.571.012-2.681.039"/></svg>

<svg width="32" height="32" viewBox="0 0 32 32" fill="none" xmlns="http://www.w3.org/2000/svg"><path d="M15.232 2.108 C 14.728 2.246,14.286 2.509,13.895 2.902 C 12.233 4.575,13.030 7.380,15.320 7.920 C 17.176 8.357,18.987 6.927,18.987 5.023 C 18.987 3.664,18.058 2.455,16.746 2.106 C 16.386 2.010,15.585 2.011,15.232 2.108 M16.464 4.165 C 16.904 4.378,17.116 5.037,16.887 5.479 C 16.410 6.402,15.015 6.074,15.019 5.040 C 15.021 4.276,15.764 3.826,16.464 4.165 M13.426 9.550 C 12.889 9.680,12.312 10.157,12.091 10.655 C 11.903 11.077,10.269 19.803,10.311 20.161 C 10.390 20.846,10.827 21.462,11.451 21.769 C 11.772 21.927,11.852 21.943,12.433 21.964 L 13.067 21.986 13.067 25.608 C 13.067 29.598,13.053 29.437,13.404 29.745 C 13.881 30.163,14.677 29.994,14.938 29.420 C 15.033 29.211,15.038 28.988,15.039 25.035 C 15.040 22.064,15.023 20.817,14.979 20.688 C 14.946 20.588,14.856 20.439,14.779 20.355 C 14.500 20.052,14.404 20.029,13.304 20.000 L 12.287 19.973 13.064 15.720 L 13.840 11.466 15.997 11.480 L 18.155 11.493 18.931 15.733 L 19.708 19.973 18.694 20.000 C 17.614 20.028,17.499 20.054,17.243 20.329 C 16.952 20.640,16.960 20.511,16.960 25.013 C 16.960 28.639,16.971 29.202,17.042 29.373 C 17.149 29.629,17.260 29.748,17.513 29.877 C 17.932 30.091,18.433 29.970,18.743 29.582 L 18.907 29.377 18.921 25.682 L 18.936 21.986 19.562 21.964 C 20.126 21.944,20.224 21.925,20.542 21.776 C 20.984 21.569,21.299 21.259,21.497 20.835 C 21.786 20.215,21.806 20.386,20.881 15.440 C 19.965 10.538,19.966 10.540,19.513 10.086 C 19.385 9.957,19.124 9.777,18.933 9.686 L 18.587 9.520 16.107 9.511 C 14.743 9.506,13.536 9.523,13.426 9.550 " fill="#1A1C1F" stroke="none" fill-rule="evenodd"></path></svg>
